ui/StatusQ/src/assets/img/icons/collapse.svg

<svg fill="none" height="24" viewBox="0 0 24 24" width="24" xmlns="http://www.w3.org/2000/svg"><g fill="#939ba1"><path d="m12.7959 4.65686c0-.41422.3358-.75.75-.75.4143 0 .75.33578.75.75v2.63908c0 .44545.5386.66854.8536.35356l4.1798-4.17983c.2929-.29289.7678-.29289 1.0607 0s.2929.76777 0 1.06066l-4.1798 4.17983c-.315.31498-.0919.85355.3535.85355h2.6391c.4142 0 .75.33578.75.74999 0 .4142-.3358.75-.75.75h-5.6569c-.4142 0-.75-.3358-.75-.75z"/><path d="m4.54594 12.7647c-.41421 0-.75.3358-.75.75s.33579.75.75.75h2.63909c.44545 0 .66853.5386.35355.8536l-4.17983 4.1798c-.29289.2929-.29289.7678.00001 1.0607.29289.2929.76776.2929 1.06066 0l4.17982-4.1799c.31498-.3149.85355-.0919.85355.3536v2.6391c0 .4142.33579.75.75001.75.4142 0 .75-.3358.75-.75v-5.6569c0-.4142-.3358-.75-.75-.75z"/></g></svg>

<svg width="24" height="24" viewBox="0 0 24 24" fill="none" xmlns="http://www.w3.org/2000/svg">
<g id="Arrow / Collapse">
<g id="Icon">
<path d="M12.7959 4.65686C12.7959 4.24264 13.1317 3.90686 13.5459 3.90686C13.9602 3.90686 14.2959 4.24264 14.2959 4.65686L14.2959 7.29594C14.2959 7.74139 14.8345 7.96448 15.1495 7.6495L19.3293 3.46967C19.6222 3.17678 20.0971 3.17678 20.39 3.46967C20.6829 3.76256 20.6829 4.23744 20.39 4.53033L16.2102 8.71016C15.8952 9.02514 16.1183 9.56371 16.5637 9.56371L19.2028 9.56371C19.617 9.56371 19.9528 9.89949 19.9528 10.3137C19.9528 10.7279 19.617 11.0637 19.2028 11.0637L13.5459 11.0637C13.1317 11.0637 12.7959 10.7279 12.7959 10.3137L12.7959 4.65686Z" fill="#939BA1"/>
<path d="M4.54594 12.7647C4.13173 12.7647 3.79594 13.1005 3.79594 13.5147C3.79594 13.9289 4.13173 14.2647 4.54594 14.2647L7.18503 14.2647C7.63048 14.2647 7.85356 14.8033 7.53858 15.1183L3.35875 19.2981C3.06586 19.591 3.06586 20.0659 3.35876 20.3588C3.65165 20.6517 4.12652 20.6517 4.41942 20.3588L8.59924 16.1789C8.91422 15.864 9.45279 16.087 9.45279 16.5325L9.45279 19.1716C9.45279 19.5858 9.78858 19.9216 10.2028 19.9216C10.617 19.9216 10.9528 19.5858 10.9528 19.1716V13.5147C10.9528 13.1005 10.617 12.7647 10.2028 12.7647L4.54594 12.7647Z" fill="#939BA1"/>
</g>
</g>
</svg>
